public/images/front/footer-logo.svg

<svg width="400" height="230" viewBox="0 0 400 230" fill="none" xmlns="http://www.w3.org/2000/svg">
<path d="M231.48 31.6093C231.48 22.9261 224.609 15.8463 216.019 15.461C215.644 6.87158 208.544 0 199.871 0C191.198 0 184.098 6.87158 183.723 15.461C175.144 15.8359 168.262 22.9157 168.262 31.6093C168.262 40.3028 175.144 47.3722 183.723 47.7575C184.108 56.3469 191.198 63.2185 199.871 63.2185C208.544 63.2185 215.634 56.3365 216.019 47.7575C224.609 47.3826 231.48 40.282 231.48 31.6093ZM228.898 30.3599H216.05V17.9806C222.818 18.345 228.294 23.6549 228.898 30.3599ZM213.541 45.2899H201.12V42.052C201.537 40.5215 202.432 38.3247 204.379 36.3361C206.42 34.2538 208.689 33.3167 210.282 32.8795H213.52V45.2795H213.531L213.541 45.2899ZM186.18 32.8586H189.439C190.959 33.2334 193.145 34.0872 195.123 35.9925C197.372 38.1581 198.257 40.6464 198.601 42.0207V45.2691H186.19V32.8482H186.18V32.8586ZM186.18 17.9286H198.59V21.2082C198.288 22.697 197.57 24.8418 195.758 26.8096C193.541 29.2146 190.896 30.0579 189.449 30.3495H186.159V17.9182H186.169L186.18 17.9286ZM199.892 38.2934C199.225 36.9608 198.257 35.524 196.872 34.1809C195.717 33.0669 194.509 32.2548 193.364 31.6717C194.759 30.995 196.258 29.9955 197.633 28.5066C198.694 27.351 199.455 26.1432 199.985 24.9875C200.714 26.3515 201.755 27.8195 203.223 29.1626C204.244 30.11 205.41 30.9221 206.649 31.5676C205.327 32.2443 203.9 33.1918 202.578 34.5557C201.391 35.7947 200.516 37.0857 199.892 38.2934ZM210.314 30.3599C208.887 29.9434 206.836 29.0793 204.941 27.3405C202.682 25.2582 201.631 22.8636 201.131 21.1769V17.9494H213.552V30.3703H210.314V30.3599ZM213.5 15.4298H201.12V2.58205C207.815 3.18591 213.135 8.66235 213.5 15.4298ZM198.611 2.58205V15.4298H186.232C186.596 8.66235 191.906 3.18591 198.611 2.58205ZM183.681 17.9702V30.3495H170.833C171.437 23.6549 176.914 18.345 183.681 17.9702ZM170.833 32.8586H183.681V45.2379C176.914 44.8735 171.437 39.5636 170.833 32.8586ZM186.222 47.7887H198.601V60.6365C191.917 60.0326 186.607 54.5561 186.222 47.7887ZM201.12 60.6365V47.7887H213.5C213.135 54.5561 207.825 60.0222 201.12 60.6365ZM216.05 45.2379V32.8586H228.898C228.294 39.5636 222.818 44.8735 216.05 45.2379Z" fill="#8C8A72"/>
<path d="M39.468 229.749H36.7298V218.974H32.8359V216.329H43.3515V218.974H39.468V229.749Z" fill="#8C8A72"/>
<path d="M54.7133 221.556V216.329H57.4516V229.749H54.7133V224.211H49.2369V229.749H46.4883V216.329H49.2369V221.556H54.7133Z" fill="#8C8A72"/>
<path d="M64.3932 224.169V227.136H71.0253V229.749H61.6445V216.329H70.8379V218.932H64.3932V221.639H70.1091V224.169H64.3932Z" fill="#8C8A72"/>
<path d="M83.6874 218.932V222.42H86.3111C86.8421 222.42 87.2898 222.264 87.6438 221.93C88.0082 221.608 88.1852 221.191 88.1852 220.681C88.1852 220.171 88.0082 219.744 87.6438 219.421C87.2794 219.099 86.8421 218.932 86.3111 218.932H83.6874ZM88.154 229.749L85.4678 224.919H83.6978V229.749H80.9492V216.329H86.4048C87.2586 216.329 88.029 216.517 88.7162 216.891C89.4137 217.266 89.9551 217.776 90.3508 218.432C90.7464 219.088 90.9442 219.827 90.9442 220.66C90.9442 221.493 90.6944 222.295 90.1946 222.972C89.6949 223.659 89.0181 224.159 88.1644 224.492L91.3295 229.749H88.1644H88.154Z" fill="#8C8A72"/>
<path d="M97.3893 216.329H94.6406V229.76H97.3893V216.329Z" fill="#8C8A72"/>
<path d="M107.154 229.749H104.416V218.974H100.512V216.329H111.038V218.974H107.154V229.749Z" fill="#8C8A72"/>
<path d="M119.47 229.999C118.418 229.999 117.471 229.76 116.638 229.291C115.816 228.823 115.18 228.167 114.733 227.344C114.285 226.522 114.066 225.606 114.066 224.596V216.329H116.805V224.596C116.805 225.398 117.044 226.064 117.513 226.584C117.981 227.095 118.637 227.355 119.47 227.355C120.303 227.355 120.948 227.095 121.427 226.584C121.906 226.064 122.146 225.398 122.146 224.596V216.329H124.884V224.596C124.884 225.606 124.655 226.522 124.207 227.344C123.759 228.167 123.124 228.812 122.302 229.291C121.479 229.76 120.532 229.999 119.47 229.999Z" fill="#8C8A72"/>
<path d="M135.445 224.45L133.811 219.744L132.176 224.45H135.445ZM140.203 229.749H137.319L136.341 226.99H131.27L130.292 229.749H127.512L132.509 216.329H135.195L140.182 229.749H140.203Z" fill="#8C8A72"/>
<path d="M151.912 229.749H142.938V216.329H145.686V227.105H151.912V229.749Z" fill="#8C8A72"/>
<path d="M167.2 227.355C167.897 227.355 168.533 227.168 169.116 226.793C169.709 226.418 170.178 225.897 170.532 225.242C170.886 224.586 171.063 223.846 171.063 223.045C171.063 222.243 170.886 221.514 170.532 220.858C170.178 220.202 169.709 219.682 169.116 219.307C168.533 218.932 167.897 218.745 167.2 218.745C166.502 218.745 165.878 218.932 165.284 219.307C164.691 219.682 164.222 220.202 163.868 220.858C163.514 221.514 163.337 222.243 163.337 223.045C163.337 223.846 163.514 224.586 163.868 225.242C164.222 225.908 164.691 226.418 165.284 226.793C165.878 227.168 166.513 227.355 167.2 227.355ZM167.2 230C166.023 230 164.93 229.687 163.92 229.073C162.91 228.459 162.098 227.615 161.505 226.553C160.901 225.481 160.609 224.315 160.609 223.045C160.609 221.775 160.911 220.629 161.505 219.557C162.109 218.484 162.91 217.641 163.92 217.027C164.93 216.402 166.023 216.09 167.2 216.09C168.376 216.09 169.47 216.402 170.479 217.027C171.489 217.641 172.291 218.484 172.895 219.557C173.488 220.619 173.79 221.785 173.79 223.045C173.79 224.304 173.488 225.481 172.895 226.553C172.291 227.615 171.489 228.459 170.479 229.073C169.47 229.687 168.376 230 167.2 230Z" fill="#8C8A72"/>
<path d="M186.356 216.329V218.974H180.026V222.201H185.471V224.721H180.026V229.749H177.277V216.329H186.356Z" fill="#8C8A72"/>
<path d="M202.566 224.45L200.932 219.744L199.297 224.45H202.566ZM207.324 229.749H204.44L203.462 226.99H198.391L197.413 229.749H194.633L199.63 216.329H202.316L207.304 229.749H207.324Z" fill="#8C8A72"/>
<path d="M212.809 218.932V222.42H215.432C215.963 222.42 216.411 222.264 216.765 221.93C217.129 221.608 217.306 221.191 217.306 220.681C217.306 220.171 217.129 219.744 216.765 219.421C216.4 219.099 215.963 218.932 215.432 218.932H212.809ZM217.275 229.749L214.589 224.919H212.819V229.749H210.07V216.329H215.526C216.38 216.329 217.15 216.517 217.837 216.891C218.535 217.266 219.076 217.776 219.472 218.432C219.868 219.088 220.065 219.827 220.065 220.66C220.065 221.493 219.815 222.295 219.316 222.972C218.816 223.659 218.139 224.159 217.285 224.492L220.451 229.749H217.285H217.275Z" fill="#8C8A72"/>
<path d="M229.335 229.749H226.597V218.974H222.703V216.329H233.219V218.974H229.335V229.749Z" fill="#8C8A72"/>
<path d="M245.419 216.329V218.974H239.088V222.201H244.534V224.721H239.088V229.749H236.34V216.329H245.419Z" fill="#8C8A72"/>
<path d="M254.134 229.999C253.082 229.999 252.135 229.76 251.302 229.291C250.48 228.823 249.844 228.167 249.397 227.344C248.949 226.522 248.73 225.606 248.73 224.596V216.329H251.469V224.596C251.469 225.398 251.708 226.064 252.177 226.584C252.645 227.095 253.301 227.355 254.134 227.355C254.967 227.355 255.612 227.095 256.091 226.584C256.57 226.064 256.81 225.398 256.81 224.596V216.329H259.548V224.596C259.548 225.606 259.319 226.522 258.871 227.344C258.424 228.167 257.788 228.812 256.966 229.291C256.143 229.76 255.196 229.999 254.134 229.999Z" fill="#8C8A72"/>
<path d="M272.615 229.749H263.641V216.329H266.4V227.105H272.615V229.749Z" fill="#8C8A72"/>
<path d="M288.044 222.68H294.176V229.75H292.552L292.073 227.99C291.656 228.542 291.084 229.01 290.334 229.406C289.595 229.802 288.783 230 287.887 230C286.711 230 285.618 229.687 284.608 229.073C283.598 228.459 282.786 227.615 282.192 226.553C281.588 225.481 281.297 224.315 281.297 223.045C281.297 221.775 281.599 220.629 282.192 219.557C282.786 218.484 283.598 217.641 284.608 217.027C285.618 216.402 286.711 216.09 287.887 216.09C288.96 216.09 289.928 216.319 290.792 216.756C291.656 217.204 292.364 217.787 292.906 218.505C293.447 219.213 293.801 219.963 293.978 220.733H291.125C290.927 220.223 290.553 219.765 289.98 219.359C289.418 218.943 288.731 218.745 287.898 218.745C287.211 218.745 286.575 218.932 285.982 219.307C285.389 219.682 284.92 220.202 284.566 220.858C284.212 221.514 284.035 222.243 284.035 223.045C284.035 223.846 284.212 224.586 284.566 225.242C284.92 225.908 285.389 226.418 285.982 226.793C286.575 227.168 287.211 227.355 287.898 227.355C288.835 227.355 289.584 227.105 290.147 226.626C290.719 226.137 291.084 225.606 291.25 225.023H288.033V222.68H288.044Z" fill="#8C8A72"/>
<path d="M300.975 216.329H298.227V229.76H300.975V216.329Z" fill="#8C8A72"/>
<path d="M310.148 225.991L313.438 216.329H316.239L311.46 229.749H308.68L303.922 216.329H306.837L310.148 225.991Z" fill="#8C8A72"/>
<path d="M321.932 216.329H319.184V229.76H321.932V216.329Z" fill="#8C8A72"/>
<path d="M334.604 225.106V216.329H337.248V229.749H334.739L328.773 220.962V229.749H326.129V216.329H328.648L334.604 225.106Z" fill="#8C8A72"/>
<path d="M347.473 222.68H353.606V229.75H351.981L351.502 227.99C351.086 228.542 350.513 229.01 349.764 229.406C349.025 229.802 348.212 230 347.317 230C346.141 230 345.047 229.687 344.037 229.073C343.027 228.459 342.215 227.615 341.622 226.553C341.018 225.481 340.727 224.315 340.727 223.045C340.727 221.775 341.028 220.629 341.622 219.557C342.226 218.484 343.027 217.641 344.037 217.027C345.047 216.402 346.141 216.09 347.317 216.09C348.389 216.09 349.358 216.319 350.222 216.756C351.086 217.204 351.794 217.787 352.335 218.505C352.877 219.213 353.231 219.963 353.408 220.733H350.555C350.357 220.223 349.972 219.765 349.41 219.359C348.848 218.943 348.16 218.745 347.327 218.745C346.64 218.745 346.005 218.932 345.412 219.307C344.818 219.682 344.35 220.202 343.996 220.858C343.642 221.514 343.465 222.243 343.465 223.045C343.465 223.846 343.642 224.586 343.996 225.242C344.35 225.908 344.818 226.418 345.412 226.793C346.005 227.168 346.64 227.355 347.327 227.355C348.264 227.355 349.014 227.105 349.576 226.626C350.149 226.137 350.513 225.606 350.68 225.023H347.463V222.68H347.473Z" fill="#8C8A72"/>
<path d="M34.8472 98.2446C31.8071 98.2446 29.5374 98.4841 28.0173 98.963C26.5076 99.4419 25.3728 100.462 24.644 102.014C23.9048 103.575 23.5404 106.043 23.5404 109.427V135.684H55.2537V109.302C55.2537 105.918 54.9101 103.471 54.2126 101.961C53.5254 100.452 52.4218 99.4523 50.9017 98.9734C49.3816 98.4945 47.0286 98.255 43.8219 98.255V96.0478H79.1793V98.255H78.2735C75.4103 98.3383 73.2656 98.6194 71.8392 99.0983C70.4128 99.5773 69.33 100.598 68.5908 102.149C67.8516 103.711 67.4872 106.136 67.4872 109.427V171.302C67.4872 174.686 67.8516 177.153 68.5908 178.715C69.33 180.277 70.4753 181.287 72.037 181.765C73.5987 182.244 75.983 182.484 79.1897 182.484V184.691H43.8323V182.484H44.9984C47.7679 182.484 49.871 182.203 51.2974 181.641C52.7341 181.078 53.7441 179.996 54.3479 178.392C54.9518 176.789 55.2641 174.425 55.2641 171.302V140.63H23.5508V171.302C23.5508 174.425 23.8735 176.789 24.5294 178.392C25.1854 179.996 26.1953 181.078 27.58 181.641C28.9647 182.203 31.0054 182.484 33.6915 182.484H34.8576V184.691H0V182.484H1.16609C3.76896 182.484 5.77837 182.203 7.20474 181.641C8.64153 181.078 9.68268 180.016 10.3282 178.455C10.9737 176.893 11.3069 174.509 11.3069 171.302V109.427C11.3069 104.918 10.5885 101.93 9.1621 100.462C7.73573 98.9838 5.28903 98.2446 1.82201 98.2446H0V96.0374H34.8472V98.2446Z" fill="#8C8A72"/>
<path d="M143.365 159.985H143.625V109.291C143.625 106.001 143.261 103.575 142.522 102.014C141.793 100.462 140.617 99.4419 139.013 98.963C137.41 98.4841 135.088 98.2446 132.058 98.2446V96.0374H157.671V98.2446C154.464 98.2446 152.142 98.9422 150.716 100.327C149.289 101.712 148.571 103.96 148.571 107.084V186.117H146.749L96.3157 114.237H96.0554V171.302C96.0554 174.509 96.399 176.914 97.0965 178.517C97.7941 180.12 98.8665 181.162 100.345 181.63C101.823 182.109 103.947 182.39 106.717 182.473H108.528V184.681H81.1045V182.473C84.7485 182.296 87.3202 181.609 88.8402 180.402C90.3603 179.183 91.1203 176.758 91.1203 173.114V107.084C90.7768 106.647 90.402 106.147 90.0167 105.585C89.6211 105.022 89.1734 104.439 88.6528 103.836C87.0078 101.576 85.6439 100.087 84.5611 99.3482C83.4783 98.609 81.6875 98.2446 79.168 98.2446V96.0374H98.4084L143.376 159.985H143.365Z" fill="#8C8A72"/>
<path d="M230.198 98.2438C227.856 98.2438 226.107 98.6082 224.93 99.3474C223.764 100.076 223.181 101.398 223.181 103.314C223.181 104.439 223.483 106 224.097 107.989L238.528 159.463H238.788L249.574 122.94L245.285 107.729C244.337 104.605 243.254 102.315 242.036 100.847C240.828 99.3682 238.705 98.5041 235.675 98.2438V96.0365H267.128V98.2438C263.838 98.2438 261.422 98.681 259.913 99.5452C258.393 100.409 257.643 101.971 257.643 104.22C257.643 105.344 257.987 107.166 258.684 109.686L272.209 158.953H272.459L285.848 111.383C286.712 108.52 287.149 106.271 287.149 104.616C287.149 102.367 286.431 100.743 285.004 99.743C283.578 98.7435 281.256 98.2438 278.049 98.2438V96.0365H300.799V98.2438C299.154 98.4208 297.81 98.8476 296.769 99.5452C295.728 100.232 294.802 101.45 293.979 103.179C293.157 104.907 292.261 107.51 291.314 110.977L269.47 186.627H267.138L252.187 132.029H251.927L235.675 186.627H233.717L211.489 109.02C210.364 105.209 209.188 102.544 207.97 101.034C206.762 99.514 204.857 98.5769 202.254 98.2334V96.0261H230.198V98.2334V98.2438Z" fill="#8C8A72"/>
<path d="M329.241 98.2438C326.899 98.2438 325.15 98.6082 323.973 99.3474C322.807 100.076 322.224 101.398 322.224 103.314C322.224 104.439 322.526 106 323.14 107.989L337.57 159.463H337.831L348.617 122.94L344.328 107.729C343.38 104.605 342.297 102.315 341.079 100.847C339.871 99.3682 337.747 98.5041 334.718 98.2438V96.0365H366.171V98.2438C362.87 98.2438 360.465 98.681 358.956 99.5452C357.436 100.409 356.686 101.971 356.686 104.22C356.686 105.344 357.029 107.166 357.727 109.686L371.252 158.953H371.501L384.891 111.383C385.755 108.52 386.192 106.271 386.192 104.616C386.192 102.367 385.474 100.743 384.047 99.743C382.621 98.7435 380.299 98.2438 377.092 98.2438V96.0365H399.842V98.2438C398.197 98.4208 396.853 98.8476 395.812 99.5452C394.771 100.232 393.844 101.45 393.022 103.179C392.199 104.907 391.304 107.51 390.357 110.977L368.513 186.627H366.181L351.23 132.029H350.97L334.718 186.627H332.76L310.532 109.02C309.407 105.209 308.231 102.544 307.013 101.034C305.805 99.514 303.9 98.5769 301.297 98.2334V96.0261H329.241V98.2334V98.2438Z" fill="#8C8A72"/>
<path d="M167.894 124.354C167.894 133.496 168.893 140.128 170.892 144.24C172.891 148.353 176.171 150.404 180.721 150.404C185.271 150.404 188.8 148.217 190.695 143.824C192.59 139.44 193.537 132.944 193.537 124.344C193.537 115.036 192.496 108.362 190.414 104.343C188.332 100.314 185.073 98.2943 180.638 98.2943C176.9 98.2943 174.099 99.6582 172.235 102.396C170.372 105.124 169.175 108.331 168.664 112.006C168.154 115.681 167.894 119.794 167.894 124.344M180.721 95.4624C185.427 95.4624 189.435 96.8263 192.725 99.5645C196.026 102.292 198.504 105.863 200.149 110.278C201.804 114.682 202.627 119.378 202.627 124.354C202.627 129.331 201.794 134.089 200.149 138.472C198.504 142.855 196.026 146.406 192.725 149.144C189.425 151.872 185.427 153.236 180.721 153.236C176.015 153.236 172.246 151.924 168.945 149.3C165.645 146.676 163.125 143.157 161.397 138.753C159.658 134.349 158.805 129.539 158.805 124.354C158.805 119.169 159.627 114.682 161.283 110.278C162.928 105.863 165.406 102.292 168.706 99.5645C172.006 96.8263 176.015 95.4624 180.721 95.4624Z" fill="#8C8A72"/>
<path d="M190.865 160.504H169.012V163.971H190.865V160.504Z" fill="#8C8A72"/>
</svg>

<svg xmlns="http://www.w3.org/2000/svg" width="400" height="230" fill="none"><path fill="#D0C2AA" d="M231.478 31.61c0-8.684-6.871-15.764-15.461-16.149C215.643 6.871 208.542 0 199.869 0s-15.773 6.872-16.148 15.461c-8.579.375-15.461 7.455-15.461 16.148 0 8.694 6.882 15.763 15.461 16.148.385 8.59 7.475 15.462 16.148 15.462s15.763-6.882 16.148-15.461c8.59-.375 15.461-7.476 15.461-16.149m-2.582-1.25h-12.847V17.98c6.767.365 12.244 5.675 12.847 12.38M213.54 45.29h-12.421v-3.238a13.07 13.07 0 0 1 3.258-5.716 13.1 13.1 0 0 1 5.904-3.456h3.238v12.4h.01zm-27.362-12.431h3.259a12.56 12.56 0 0 1 5.685 3.133c2.248 2.166 3.133 4.654 3.477 6.029v3.248h-12.41V32.85h-.011zm0-14.93h12.411v3.28c-.302 1.488-1.021 3.633-2.832 5.6-2.218 2.406-4.862 3.249-6.31 3.54h-3.29V17.92h.011zm13.712 20.364a15.2 15.2 0 0 0-3.019-4.112 14.6 14.6 0 0 0-3.509-2.51 14.2 14.2 0 0 0 4.269-3.164 13.6 13.6 0 0 0 2.353-3.52 15.7 15.7 0 0 0 3.238 4.176c1.02.947 2.186 1.76 3.425 2.405a15.4 15.4 0 0 0-4.071 2.988 16.2 16.2 0 0 0-2.686 3.737m10.422-7.933a13.7 13.7 0 0 1-5.372-3.02c-2.26-2.082-3.311-4.476-3.811-6.163v-3.228h12.421V30.37h-3.238zm3.186-14.93h-12.379V2.582c6.694.604 12.014 6.08 12.379 12.848M198.609 2.582V15.43H186.23c.365-6.768 5.674-12.244 12.379-12.848m-14.93 15.388v12.38h-12.847c.603-6.695 6.08-12.005 12.847-12.38M170.832 32.86h12.847v12.379c-6.767-.364-12.244-5.674-12.847-12.38m15.388 14.93h12.379v12.847c-6.684-.603-11.994-6.08-12.379-12.847m14.899 12.847V47.79h12.379c-.365 6.767-5.674 12.233-12.379 12.847m14.93-15.398v-12.38h12.847c-.603 6.706-6.08 12.016-12.847 12.38M39.47 229.749H36.73v-10.775h-3.894v-2.645h10.516v2.645h-3.884zM54.713 221.556v-5.227h2.738v13.42h-2.739v-5.538h-5.476v5.538h-2.749v-13.42h2.75v5.227zM64.394 224.169v2.967h6.632v2.613h-9.38v-13.42h9.193v2.603h-6.445v2.707h5.716v2.53zM83.688 218.932v3.488h2.623c.531 0 .979-.156 1.333-.49.364-.322.541-.739.541-1.249s-.177-.937-.541-1.26-.802-.489-1.333-.489zm4.466 10.817-2.686-4.83h-1.77v4.83h-2.749v-13.42h5.456q1.28 0 2.311.562a4.16 4.16 0 0 1 1.635 1.541c.395.656.593 1.395.593 2.228a3.86 3.86 0 0 1-.75 2.312c-.5.687-1.176 1.187-2.03 1.52l3.165 5.257h-3.175M97.389 216.329H94.64v13.431h2.749zM107.155 229.749h-2.738v-10.775h-3.904v-2.645h10.526v2.645h-3.884zM119.471 229.999c-1.051 0-1.999-.239-2.831-.708a4.9 4.9 0 0 1-1.906-1.947c-.447-.822-.666-1.738-.666-2.748v-8.267h2.738v8.267c0 .802.24 1.468.708 1.988.469.511 1.125.771 1.957.771s1.479-.26 1.958-.771c.479-.52.718-1.186.718-1.988v-8.267h2.738v8.267c0 1.01-.229 1.926-.676 2.748a4.96 4.96 0 0 1-1.906 1.947c-.822.469-1.77.708-2.832.708M135.444 224.45l-1.635-4.706-1.634 4.706zm4.758 5.299h-2.884l-.979-2.759h-5.07l-.979 2.759h-2.78l4.998-13.42h2.686l4.987 13.42zM151.914 229.749h-8.975v-13.42h2.749v10.776h6.226zM167.198 227.355c.698 0 1.333-.187 1.916-.562.593-.375 1.062-.896 1.416-1.551.354-.656.531-1.396.531-2.197a4.5 4.5 0 0 0-.531-2.187c-.354-.656-.823-1.176-1.416-1.551a3.46 3.46 0 0 0-1.916-.562c-.698 0-1.322.187-1.916.562s-1.062.895-1.416 1.551a4.5 4.5 0 0 0-.531 2.187c0 .801.177 1.541.531 2.197a4 4 0 0 0 1.416 1.551 3.5 3.5 0 0 0 1.916.562m0 2.645a6.2 6.2 0 0 1-3.28-.927 6.76 6.76 0 0 1-2.415-2.52c-.604-1.072-.895-2.238-.895-3.508s.301-2.416.895-3.488c.604-1.073 1.405-1.916 2.415-2.53a6.1 6.1 0 0 1 3.28-.937 6.1 6.1 0 0 1 3.28.937c1.01.614 1.811 1.457 2.415 2.53a7.04 7.04 0 0 1 .895 3.488 7.14 7.14 0 0 1-.895 3.508c-.604 1.062-1.405 1.906-2.415 2.52a6.2 6.2 0 0 1-3.28.927M186.356 216.329v2.645h-6.33v3.227h5.445v2.52h-5.445v5.028h-2.749v-13.42zM202.565 224.45l-1.634-4.706-1.635 4.706zm4.759 5.299h-2.884l-.979-2.759h-5.071l-.978 2.759h-2.78l4.997-13.42h2.687l4.987 13.42zM212.81 218.932v3.488h2.624c.531 0 .979-.156 1.333-.49.364-.322.541-.739.541-1.249s-.177-.937-.541-1.26a1.94 1.94 0 0 0-1.333-.489zm4.467 10.817-2.686-4.83h-1.77v4.83h-2.749v-13.42h5.456q1.28 0 2.311.562a4.17 4.17 0 0 1 1.635 1.541c.395.656.593 1.395.593 2.228s-.25 1.635-.75 2.312c-.499.687-1.176 1.187-2.03 1.52l3.165 5.257h-3.175M229.333 229.749h-2.738v-10.775h-3.894v-2.645h10.516v2.645h-3.884zM245.42 216.329v2.645h-6.33v3.227h5.445v2.52h-5.445v5.028h-2.749v-13.42zM254.134 229.999c-1.052 0-1.999-.239-2.832-.708a4.9 4.9 0 0 1-1.905-1.947c-.448-.822-.667-1.738-.667-2.748v-8.267h2.738v8.267c0 .802.24 1.468.708 1.988.469.511 1.125.771 1.958.771s1.478-.26 1.957-.771c.479-.52.719-1.186.719-1.988v-8.267h2.738v8.267c0 1.01-.229 1.926-.677 2.748a4.97 4.97 0 0 1-1.905 1.947c-.823.469-1.77.708-2.832.708M272.614 229.749h-8.974v-13.42h2.759v10.776h6.215zM288.044 222.68h6.132v7.07h-1.624l-.479-1.76c-.417.552-.989 1.02-1.739 1.416a5.1 5.1 0 0 1-2.447.594 6.2 6.2 0 0 1-3.279-.927 6.77 6.77 0 0 1-2.416-2.52c-.604-1.072-.895-2.238-.895-3.508s.302-2.416.895-3.488a6.7 6.7 0 0 1 2.416-2.53 6.1 6.1 0 0 1 3.279-.937c1.073 0 2.041.229 2.905.666.864.448 1.572 1.031 2.114 1.749a5.8 5.8 0 0 1 1.072 2.228h-2.853c-.198-.51-.572-.968-1.145-1.374-.562-.416-1.249-.614-2.082-.614-.687 0-1.323.187-1.916.562s-1.062.895-1.416 1.551a4.5 4.5 0 0 0-.531 2.187c0 .801.177 1.541.531 2.197a4 4 0 0 0 1.416 1.551 3.5 3.5 0 0 0 1.916.562c.937 0 1.686-.25 2.249-.729.572-.489.937-1.02 1.103-1.603h-3.217v-2.343zM300.975 216.329h-2.748v13.431h2.748zM310.148 225.991l3.29-9.662h2.801l-4.779 13.42h-2.78l-4.758-13.42h2.916zM321.934 216.329h-2.749v13.431h2.749zM334.603 225.106v-8.777h2.645v13.42h-2.509l-5.966-8.787v8.787h-2.645v-13.42h2.52zM347.473 222.68h6.133v7.07h-1.624l-.479-1.76c-.417.552-.989 1.02-1.739 1.416a5.1 5.1 0 0 1-2.447.594 6.2 6.2 0 0 1-3.279-.927 6.77 6.77 0 0 1-2.416-2.52c-.604-1.072-.895-2.238-.895-3.508s.302-2.416.895-3.488c.604-1.073 1.406-1.916 2.416-2.53a6.1 6.1 0 0 1 3.279-.937c1.073 0 2.041.229 2.905.666.864.448 1.572 1.031 2.114 1.749a5.8 5.8 0 0 1 1.072 2.228h-2.853c-.198-.51-.583-.968-1.145-1.374-.562-.416-1.249-.614-2.082-.614-.687 0-1.323.187-1.916.562s-1.062.895-1.416 1.551a4.5 4.5 0 0 0-.531 2.187c0 .801.177 1.541.531 2.197a4 4 0 0 0 1.416 1.551 3.5 3.5 0 0 0 1.916.562c.937 0 1.686-.25 2.249-.729.572-.489.937-1.02 1.103-1.603h-3.217v-2.343zM34.847 98.244c-3.04 0-5.31.24-6.83.719-1.51.479-2.644 1.499-3.373 3.05-.74 1.562-1.104 4.03-1.104 7.413v26.258h31.714v-26.383c0-3.383-.344-5.83-1.041-7.34-.688-1.509-1.791-2.509-3.311-2.988s-3.873-.718-7.08-.718v-2.207h35.357v2.207h-.906q-4.294.124-6.434.843c-1.426.479-2.509 1.499-3.248 3.051-.74 1.561-1.104 3.987-1.104 7.277v61.876c0 3.383.365 5.851 1.104 7.413.74 1.561 1.884 2.571 3.446 3.05q2.343.719 7.153.719v2.207H43.832v-2.207h1.166c2.77 0 4.873-.281 6.3-.844 1.436-.562 2.446-1.645 3.05-3.248s.916-3.967.916-7.09v-30.673H23.551v30.673c0 3.123.323 5.487.979 7.09s1.665 2.686 3.05 3.248 3.425.844 6.112.844h1.166v2.207H0v-2.207h1.166c2.603 0 4.612-.281 6.039-.844q2.156-.843 3.123-3.186c.646-1.561.979-3.946.979-7.152v-61.876c0-4.508-.719-7.496-2.145-8.964q-2.14-2.218-7.34-2.218H0v-2.207h34.847z"/><path fill="#D0C2AA" d="M143.367 159.984h.26v-50.693c0-3.29-.364-5.716-1.103-7.278-.729-1.551-1.906-2.571-3.509-3.05-1.603-.48-3.925-.719-6.955-.719v-2.207h25.612v2.207c-3.206 0-5.528.698-6.955 2.083-1.426 1.384-2.144 3.633-2.144 6.757v79.033h-1.822l-50.434-71.881h-.26v57.066c0 3.206.344 5.611 1.041 7.215.698 1.603 1.77 2.644 3.249 3.113q2.217.719 6.372.843h1.811v2.207H81.106v-2.207c3.644-.177 6.216-.864 7.736-2.072 1.52-1.218 2.28-3.644 2.28-7.288v-66.029a29 29 0 0 1-1.103-1.5 23 23 0 0 0-1.364-1.749c-1.645-2.259-3.01-3.748-4.092-4.487-1.083-.74-2.874-1.104-5.393-1.104v-2.207h19.24l44.967 63.947zM230.197 98.244c-2.342 0-4.091.364-5.268 1.104q-1.749 1.093-1.749 3.966c0 1.125.302 2.687.916 4.675l14.431 51.475h.26l10.786-36.524-4.289-15.211c-.948-3.124-2.031-5.414-3.249-6.882-1.208-1.479-3.332-2.343-6.361-2.603v-2.207h31.453v2.207c-3.29 0-5.706.437-7.215 1.301-1.52.865-2.27 2.426-2.27 4.675 0 1.125.344 2.947 1.041 5.466l13.525 49.267h.25l13.389-47.57c.864-2.863 1.301-5.112 1.301-6.767 0-2.249-.718-3.873-2.145-4.873-1.426-1-3.748-1.499-6.955-1.499v-2.207h22.75v2.207c-1.645.177-2.989.604-4.03 1.301-1.041.688-1.967 1.906-2.79 3.634-.822 1.728-1.718 4.331-2.665 7.798l-21.844 75.65h-2.332l-14.951-54.598h-.26l-16.252 54.598h-1.958l-22.228-77.607c-1.125-3.811-2.301-6.476-3.519-7.986-1.208-1.52-3.113-2.457-5.716-2.8v-2.208h27.944v2.218M329.242 98.244c-2.342 0-4.092.364-5.268 1.104q-1.749 1.093-1.749 3.966c0 1.125.302 2.687.916 4.675l14.43 51.475h.261l10.786-36.524-4.29-15.211c-.947-3.124-2.03-5.414-3.248-6.882-1.208-1.479-3.332-2.343-6.361-2.603v-2.207h31.453v2.207c-3.301 0-5.706.437-7.215 1.301-1.521.865-2.27 2.426-2.27 4.675 0 1.125.343 2.947 1.041 5.466l13.524 49.267h.25l13.39-47.57c.864-2.863 1.301-5.112 1.301-6.767 0-2.249-.718-3.873-2.145-4.873-1.426-1-3.748-1.499-6.955-1.499v-2.207h22.749v2.207c-1.645.177-2.988.604-4.029 1.301-1.041.688-1.968 1.906-2.79 3.634s-1.718 4.331-2.665 7.798l-21.844 75.65h-2.332l-14.951-54.598h-.26l-16.252 54.598h-1.958l-22.228-77.607c-1.125-3.811-2.301-6.476-3.519-7.986-1.208-1.52-3.113-2.457-5.716-2.8v-2.208h27.944v2.218M167.895 124.354c0 9.142 1 15.774 2.999 19.886 1.999 4.113 5.279 6.164 9.828 6.164 4.55 0 8.08-2.187 9.975-6.58q2.842-6.578 2.842-19.48c0-9.308-1.041-15.982-3.124-20.001-2.082-4.029-5.341-6.049-9.776-6.049-3.738 0-6.538 1.364-8.402 4.102-1.864 2.728-3.061 5.935-3.571 9.61s-.771 7.788-.771 12.338m12.827-28.882c4.706 0 8.715 1.364 12.005 4.102 3.3 2.728 5.778 6.299 7.423 10.714 1.656 4.404 2.478 9.1 2.478 14.076s-.833 9.735-2.478 14.118-4.123 7.934-7.423 10.672c-3.301 2.728-7.299 4.092-12.005 4.092s-8.475-1.312-11.775-3.936-5.82-6.143-7.548-10.547c-1.739-4.404-2.593-9.214-2.593-14.399s.823-9.672 2.478-14.076c1.645-4.415 4.123-7.986 7.423-10.714 3.301-2.738 7.309-4.102 12.015-4.102M190.864 160.504H169.01v3.467h21.854z"/></svg>
